X: 16
T: Quick Step
%R: jig
B: Stewart "A Select Collection of Airs, Jigs, Marches and Reels", ca.1784, p.8,9 #16
F: http://imslp.org/wiki/A_Select_Collection_of_Airs,_Jigs,_Marches_and_Reels_%28Various%29
Z: 2017 John Chambers <jc:trillian.mit.edu>
M: 6/8
L: 1/8
K: C
G |\
ceg gec | abc' bag | abc' gec | dec BAG |\
ceg gec | abc' bag | c'ba gc'e | (ef).d c2 :: c |\
dBG GBd |
(de).f Te2d | ece geg | (c'b).a Ta2g |\
abc' gec | dec BAG | ceg gec | abc' bag |\
c'ba gc'e | (ef).d c2 :|
